X:84
T:Mad'm Capdevill's Hornpipe. ThoH.084
Q:3/8=80
M:6/8
L:1/8
N:Madame Capdeville danced in London in the 1760's,
N:was guillotined at Pau in 1793 for helping refugees escape revolutionary France
B:Thompson's Compleat Collection of 120 Favourite Hornpipes.
Z:Village Music Project, Simon Wilson 2016
O:England.
K:Bb
F/(E/|D)F(B G)B(e|d)cB (A/B/c)F|EgE DfD|Ced cF/E/D/C/|
B,DF GbG|FaF EgE|Deg fdB|ecAB2:|
|:(d/e/)|f>gf fdB|fg_a{a}g3|(_a/g/f/g/)a (e/d/c/=B/c)|
Gc=B cG/F/E/D/|CEG gbG|B,DF faF|EgE DfD|
Ced cF/E/D/C/|B,DF GbG|FaF EgE|Deg fdB|ecAB2:|

